svgs/regular/school-flag.svg

<svg xmlns="http://www.w3.org/2000/svg" viewBox="0 0 576 512"><!--! Font Awesome Pro 6.3.0 by @fontawesome - https://fontawesome.com License - https://fontawesome.com/license (Commercial License) Copyright 2023 Fonticons, Inc. --><path d="M288 0H400c8.8 0 16 7.2 16 16V80c0 8.8-7.2 16-16 16H318.1l89.6 64H504c39.8 0 72 32.2 72 72V440c0 39.8-32.2 72-72 72H336 240 72c-39.8 0-72-32.2-72-72V232c0-39.8 32.2-72 72-72h96.3L264 91.6V24c0-13.3 10.7-24 24-24zM504 464c13.3 0 24-10.7 24-24V232c0-13.3-10.7-24-24-24H400c-5 0-9.9-1.6-13.9-4.5l-98.1-70-98.1 70c-4.1 2.9-8.9 4.5-13.9 4.5H72c-13.3 0-24 10.7-24 24V440c0 13.3 10.7 24 24 24H240V400c0-26.5 21.5-48 48-48s48 21.5 48 48v64H504zM240 240a48 48 0 1 1 96 0 48 48 0 1 1 -96 0zM112 256h32c8.8 0 16 7.2 16 16v32c0 8.8-7.2 16-16 16H112c-8.8 0-16-7.2-16-16V272c0-8.8 7.2-16 16-16zm304 16c0-8.8 7.2-16 16-16h32c8.8 0 16 7.2 16 16v32c0 8.8-7.2 16-16 16H432c-8.8 0-16-7.2-16-16V272zM112 352h32c8.8 0 16 7.2 16 16v32c0 8.8-7.2 16-16 16H112c-8.8 0-16-7.2-16-16V368c0-8.8 7.2-16 16-16zm320 0h32c8.8 0 16 7.2 16 16v32c0 8.8-7.2 16-16 16H432c-8.8 0-16-7.2-16-16V368c0-8.8 7.2-16 16-16z"/></svg>

<svg xmlns="http://www.w3.org/2000/svg" viewBox="0 0 576 512"><!--! Font Awesome Pro 6.2.0 by @fontawesome - https://fontawesome.com License - https://fontawesome.com/license (Commercial License) Copyright 2022 Fonticons, Inc. --><path d="M336 240C336 266.5 314.5 288 288 288C261.5 288 240 266.5 240 240C240 213.5 261.5 192 288 192C314.5 192 336 213.5 336 240zM144 256C152.8 256 160 263.2 160 272V304C160 312.8 152.8 320 144 320H112C103.2 320 96 312.8 96 304V272C96 263.2 103.2 256 112 256H144zM416 272C416 263.2 423.2 256 432 256H464C472.8 256 480 263.2 480 272V304C480 312.8 472.8 320 464 320H432C423.2 320 416 312.8 416 304V272zM144 352C152.8 352 160 359.2 160 368V400C160 408.8 152.8 416 144 416H112C103.2 416 96 408.8 96 400V368C96 359.2 103.2 352 112 352H144zM464 352C472.8 352 480 359.2 480 368V400C480 408.8 472.8 416 464 416H432C423.2 416 416 408.8 416 400V368C416 359.2 423.2 352 432 352H464zM288 0H400C408.8 0 416 7.164 416 16V64C416 72.84 408.8 80 400 80H312V91.65L407.7 160H504C543.8 160 576 192.2 576 232V440C576 479.8 543.8 512 504 512H72C32.24 512 0 479.8 0 440V232C0 192.2 32.24 160 72 160H168.3L264 91.65V24C264 10.75 274.7 0 288 0zM528 440V232C528 218.7 517.3 208 504 208H400C394.1 208 390.1 206.4 386.1 203.5L288 133.5L189.9 203.5C185.9 206.4 181 208 176 208H72C58.75 208 48 218.7 48 232V440C48 453.3 58.75 464 72 464H240V400C240 373.5 261.5 352 288 352C314.5 352 336 373.5 336 400V464H504C517.3 464 528 453.3 528 440z"/></svg>
